icons/timer-flash-fill.svg

<svg viewBox="0 0 24 24" fill="currentColor" xmlns="http://www.w3.org/2000/svg"><path d="M6.38231 5.9681C7.92199 4.73647 9.87499 4 12 4C14.125 4 16.078 4.73647 17.6177 5.9681L19.0711 4.51472L20.4853 5.92893L19.0319 7.38231C20.2635 8.92199 21 10.875 21 13C21 17.9706 16.9706 22 12 22C7.02944 22 3 17.9706 3 13C3 10.875 3.73647 8.92199 4.9681 7.38231L3.51472 5.92893L4.92893 4.51472L6.38231 5.9681ZM13 12V7.4952L8 14H11V18.5L16 12H13ZM8 1H16V3H8V1Z"/></svg>

<svg xmlns="http://www.w3.org/2000/svg" viewBox="0 0 24 24">
    <g>
        <path fill="none" d="M0 0h24v24H0z"/>
        <path d="M6.382 5.968A8.962 8.962 0 0 1 12 4c2.125 0 4.078.736 5.618 1.968l1.453-1.453 1.414 1.414-1.453 1.453a9 9 0 1 1-14.064 0L3.515 5.93l1.414-1.414 1.453 1.453zM13 12V7.495L8 14h3v4.5l5-6.5h-3zM8 1h8v2H8V1z"/>
    </g>
</svg>
